!!!Genre:	Freylekhs (tsu der khupe)
!!!Mode:	Freygish
!!!Listening/dance:	listening
!!!:	*C:
!!!One_Mode:	no
!!!Orig_tonic: C
**kern
*I"P1
*clefG2
*k[b-e-a-]
*G:frey
*M2/4
*>[A,A1,A,A2,B,B1,B,B2,C1,C2,D,D1,D,D2,A,A1]
*>A
8g
=1!|:
(8qg/
8bn)
8r
(8qbn/
8cc)
8r
=2
((8qcc/
8bn))
8r
(8qbn/
(16a-LL)
16g
16a-
16fJJ
=3
8gL)
16gL
16gJJ
16gLL
16g
16g
16gJJ
=4
4bn
8r
24gLL
24a-
24gJJ
=5
(8qg/
8.ddL)
(16gJk
8.ee-L)
(16gJk
=6
4dd)
(16qqcc/LL
16qqdd/JJ
(16ccLL)
16bn
16dd
16ccJJ
=7
(8qcc/
2bn))
=8
8r
24gLL
24a-
24gJJ
8bnL
8ddJ
=9
8ff'
8r
[4ff
=10
16ffLL]
16gg
16aa-
16ggJJ
16ffLL
16ee-
16dd
16ccJJ
=11
16bnLL
16ddJ
8ccJ
8r
24ccLL
24dd
24ccJJ
=12
16bnLL
16cc
16dd
16ccJJ
16bnLL
16a-
16g
16fJJ
=13
8r
8f
8gL
8a-J
=14
(16bnLL
16ccJ
8ddJ)
(16qqcc/LL
16qqdd/JJ
(16ccLL)
16bnJ
8a-J
*>A1
=15
2g)
=16
4G
8r
8g
*>A2
=17:|!
2g
=18
4G
4r
=19!|:
*>B
(8qa-/
[2g)
=20
8gL]
8gJ
8bnL
8ddJ
=21
4ff'
[4ff
=22
8ffL]
8ffJ
8ee-L
8ddJ
=23
(16ddLL
16ffJ
8ee-J)
8ee-L
8ee-J
=24
4ee-T
8ddL
8ccJ
=25
[4ddt
16ddLL]
16cc
16bn
16a-JJ
=26
4g
16r
16fLL
16g
16anJJ
=27
8b-XL
16fL
16b-JJ
8ddL
16b-L
16ddJJ
=28
12ffL
12aa-X
12ggJ
12ffL
12ee-
12ddJ
=29
(16qqcc/LL
16qqdd/JJ
12ccL)
12bn
12ddJ
12ccL
12b
12ddJ
=30
(16qqbn/LL
16qqcc/JJ
(8bnL)
16a-L
16bnJJ)
(16a-LL
16gJ
8fJ)
=31
8r
8f
8gL
8a-J
=32
(16bnLL
16ccJ
8ddJ)
(16qqcc/LL
16qqdd/JJ
(16ccLL)
16bnJ
8a-J)
*>B1
=33
(8qa-/
2g)
=34
2G
*>B2
=35:|!
[2g
=36
8gL]
*>bM
*C:
!LO:TX:a:i:t=C-major
8gJ
8ccL
8ddJ
=37||
*k[]
*>C
2ee
8qqee/L
8qqee/
8qqee/
8qqee/J
=38
(16qqee/LL
16qqff/JJ
(8eeL)
8ddJ)
(8ddL
8ccJ)
=39
(8qcc/
2ee)
=40
8r
8g
8ccL
8ddJ
=41
(8ddL
8eeJ)
8eeL
8eeJ
=42
8eeL
8ggJ
(8qgg/
8ffL)
8eeJ
=43
(8.ffL
16eeJk
[4dd)
=44
4dd]
8r
8dd
=45
(16ddLL
16eeJJ
4ff)
8ff
=46
8ffL
16aaL
16aaJJ
8.ggL
16ggJk
=47
8ggL
(8qaa/
8ggJ)
4ee
=48
(16eeLL
16ff
16ee
16ddJJ)
4cc
=49
(16ccLL
16ddJJ)
4dd
8dd
=50
(16qqcc/LL
16qqdd/JJ
8ccL)
8bJ
8aL
8bJ
*>C1
=51
[2ccT
=52
8ccL]
8gJ
8ccL
8ddJ
*>C2
=53:|!
[2ccT
=54
8ccL]
24ddL
24ee
24ddJJ
8ccL
8ddJ
*>eM
*G:frey
!LO:TX:a:i:t=G-freygish
=55!|:
*>D
*k[b-e-a-]
4dd
4gg
=56
4dd
4bn
=57
8ddL
8ccJ
8bntL
8a-J
=58
4.g
(8d
=59
8gL)
8a-J
8bnL
8ccJ
=60
8ddL
(8qff/
8ee-J)
(16qqdd/LL
16qqee-/JJ
8ddL)
8ccJ
=61
2dd
=62
2ggt
=63
4dd
4gg
=64
4dd
4bn
=65
(16bnLL
16ddJ
8ccJ)
8bnL
8a-J
=66
8bnL
8a-J
8gL
8fJ
=67
12fL
12en
12fJ
12a-L
12g
12a-J
=68
12bnL
12cc
12ddJ
(16qqcc/LL
16qqdd/JJ
12ccL)
12bn
12a-J
*>D1
=69
2g
=70
2G
*>D2
=71:|!
2g
=72
2ggt
==
*-